Adwaita++/actions/16/zoom-in-x.svg

<svg xmlns="http://www.w3.org/2000/svg" width="16" height="16" viewBox="0 0 16 16">
 <defs>
  <style id="current-color-scheme" type="text/css">
   .ColorScheme-Text { color:#474747; } .ColorScheme-Highlight { color:#4285f4; }
  </style>
 </defs>
 <path style="fill:currentColor" class="ColorScheme-Text" d="M 3.2148438 2 C 2.5449838 2 1.9960938 2.5248 1.9960938 3.1875 L 1.9960938 7 L 3.9960938 7 L 3.9960938 4 L 6.9960938 4 L 6.9960938 2 L 3.2148438 2 z M 11 2 L 11 4 L 8 4 L 8 6 L 11 6 L 11 8 L 14 5 L 11 2 z M 2 8 L 2 14 L 8 14 L 8 8 L 2 8 z M 11.996094 9 L 11.996094 12 L 8.9960938 12 L 8.9960938 14 L 12.777344 14 C 13.447204 14 13.996094 13.4752 13.996094 12.8125 L 13.996094 9 L 11.996094 9 z"/>
</svg>

<svg height="16" viewBox="0 0 16 16" width="16" xmlns="http://www.w3.org/2000/svg">
  <path d="m3.2148438 2c-.66986 0-1.21875.5248-1.21875 1.1875v3.8125h2v-3h3v-2zm7.7851562 0v2h-3v2h3v2l3-3zm-9 6v6h6v-6zm9.996094 1v3h-3.0000002v2h3.7812502c.66986 0 1.21875-.5248 1.21875-1.1875v-3.8125z" fill="#474747"/>
</svg>
